!!!OTL: Frau Schwalbe.
!!!OTL-incipit:FRAU SCHWALBE IST NE SCHWAETZERIN
!!!COM: C. A. Kern
!!!ARE: Europa, Mitteleuropa, Deutschland
!!!SCT: F0318
!!!TXL: @@DE
!!!YEM: Copyright 1995, estate of Helmut Schaffrath.
**kern	**text
*ICvox	*
*M2/4	*
*k[f#]	*
*G:	*
!LO:TX:a:t=Mäßig.	!
{8b/	1._Frau
=1	=1
8b/	Schwalbe
8d	.
8d	iſt
8b/	'ne
=2	=2
8a	Schwätʒe-
8d	.
8d}	-rin,
{8ee/	ſie
=3	=3
8ee/	ſchwatʒt
8f#	den
8f#	gan-
8ee/	-ʒen
=4	=4
4dd/	Tag,
8r}	.
{8b/	ſie
=5	=5
8b/	plau-
8d	-dert
8d	mit
8b/	der
=6	=6
8a	Nach-
8d	-ba-
8d}	-rin,
{8b/	ſo
=7	=7
8a	viel
8g	ſie
8f#	plaudern
8e	.
=8	=8
4d	mag;
8r}	.
{8d	das
=9	=9
8dL	ʒwitſchert,
8ccJ	.
8a	.
8d	das
=10	=10
8dL	ʒwat-
8bJ	.
8g}	-ſchert
{8d	den
=11	=11
8e	lie-
8e	-ben
8f#	lan-
8f#	-gen
=12	=12
4g	Tag!
8r}	.
{8d	das
=13	=13
8dL	ʒwitſchert,
8ccJ	.
8a	.
8d	das
=14	=14
8dL	ʒwat-
8bJ	.
8g}	-ſchert
{8d	den
=15	=15
8e	lie-
8e	-ben
8f#	lan-
8f#	-gen
=16	=16
4g	Tag!
8r}	.
==	==
!!!AGN: Jugend - Lied, Natur, Tier
!!!ONB: ESAC (Essen Associative Code) Database: FINK
!!!AMT: simple duple
!!!AIN: vox
!!!EED: Helmut Schaffrath
!!!EEV: 1.0
!!Text: Dissenbach
!!!source: Musikalischer Hausschatz der Deutschen. Eine Sammlung von über 1000 Liedern und Gesängen mit Singstimmen und Klavierbegleitung. Leipzig, Litterarisches Verlags-Haus.
!!!page: 191
!!!ENC: Anna Maria Matuszewska
!!!EEV: 2025/03/13
*-	*-
